<?xml version="1.0" encoding="UTF-8"?>
<map version="1.11" tiledversion="1.12.2" orientation="orthogonal" renderorder="right-down" width="25" height="25" tilewidth="40" tileheight="40" infinite="0" nextlayerid="21" nextobjectid="79">
 <editorsettings>
  <export target="data.lua" format="lua"/>
 </editorsettings>
 <tileset firstgid="1" source="../../tilesets/castle.tsx"/>
 <tileset firstgid="41" name="torches" tilewidth="15" tileheight="20" tilecount="6" columns="0">
  <grid orientation="orthogonal" width="1" height="1"/>
  <tile id="0">
   <image source="../../../../assets/sprites/tilesets/spr_castle_torch_0.png" width="15" height="20"/>
   <animation>
    <frame tileid="0" duration="100"/>
    <frame tileid="1" duration="100"/>
    <frame tileid="2" duration="100"/>
    <frame tileid="3" duration="100"/>
    <frame tileid="4" duration="100"/>
    <frame tileid="5" duration="100"/>
   </animation>
  </tile>
  <tile id="1">
   <image source="../../../../assets/sprites/tilesets/spr_castle_torch_1.png" width="15" height="20"/>
  </tile>
  <tile id="2">
   <image source="../../../../assets/sprites/tilesets/spr_castle_torch_2.png" width="15" height="20"/>
  </tile>
  <tile id="3">
   <image source="../../../../assets/sprites/tilesets/spr_castle_torch_3.png" width="15" height="20"/>
  </tile>
  <tile id="4">
   <image source="../../../../assets/sprites/tilesets/spr_castle_torch_4.png" width="15" height="20"/>
  </tile>
  <tile id="5">
   <image source="../../../../assets/sprites/tilesets/spr_castle_torch_5.png" width="15" height="20"/>
  </tile>
 </tileset>
 <tileset firstgid="47" name="torches2" tilewidth="15" tileheight="20" tilecount="6" columns="0">
  <grid orientation="orthogonal" width="1" height="1"/>
  <tile id="0">
   <image source="../../../../assets/sprites/tilesets/spr_torch_0.png" width="15" height="20"/>
   <animation>
    <frame tileid="0" duration="100"/>
    <frame tileid="1" duration="100"/>
    <frame tileid="2" duration="100"/>
    <frame tileid="3" duration="100"/>
    <frame tileid="4" duration="100"/>
    <frame tileid="5" duration="100"/>
   </animation>
  </tile>
  <tile id="1">
   <image source="../../../../assets/sprites/tilesets/spr_torch_1.png" width="15" height="20"/>
  </tile>
  <tile id="2">
   <image source="../../../../assets/sprites/tilesets/spr_torch_2.png" width="15" height="20"/>
  </tile>
  <tile id="3">
   <image source="../../../../assets/sprites/tilesets/spr_torch_3.png" width="15" height="20"/>
  </tile>
  <tile id="4">
   <image source="../../../../assets/sprites/tilesets/spr_torch_4.png" width="15" height="20"/>
  </tile>
  <tile id="5">
   <image source="../../../../assets/sprites/tilesets/spr_torch_5.png" width="15" height="20"/>
  </tile>
 </tileset>
 <layer id="1" name="Tile Layer 1" width="25" height="25">
  <data encoding="csv">
0,0,0,0,0,0,0,0,0,0,0,0,0,0,0,0,0,0,0,0,0,0,0,0,0,
0,0,0,0,0,0,0,0,0,0,0,0,0,0,0,0,0,0,0,0,0,0,0,0,0,
0,0,0,0,0,0,0,0,0,0,0,0,0,0,0,0,0,0,0,0,0,0,0,0,0,
0,0,0,0,0,0,0,0,0,0,0,0,0,0,0,0,0,0,0,0,0,0,0,0,0,
0,0,0,0,0,0,0,0,0,0,0,0,0,0,0,0,0,0,0,0,0,0,0,0,0,
0,0,0,0,0,0,0,0,0,0,0,0,0,0,0,0,0,0,0,0,0,0,0,0,0,
0,0,0,0,0,0,0,0,0,0,0,0,0,0,0,0,0,0,0,0,0,0,0,0,0,
0,0,0,0,0,0,0,0,0,0,0,0,0,0,0,0,0,0,0,0,0,0,0,0,0,
0,0,0,0,0,6,7,7,7,7,7,7,7,7,7,7,7,7,7,7,8,0,0,0,0,
0,0,0,0,0,10,11,17,11,17,11,11,11,11,11,17,11,11,11,17,12,0,0,0,0,
0,0,0,0,0,10,17,11,17,11,17,11,11,11,11,11,17,11,17,11,12,0,0,0,0,
0,0,0,0,0,10,11,17,11,17,11,11,11,11,11,17,11,17,11,17,12,0,0,0,0,
0,0,0,0,0,10,17,11,17,11,17,11,11,11,11,11,17,11,17,11,12,0,0,0,0,
0,0,0,0,0,10,11,11,11,11,11,11,11,11,11,11,11,11,11,11,12,0,0,0,0,
0,0,0,0,0,10,11,11,11,11,11,11,11,11,11,11,11,11,11,11,12,0,0,0,0,
0,0,0,0,0,14,15,15,15,11,11,11,11,11,11,11,11,15,15,15,16,0,0,0,0,
0,0,0,0,0,0,0,0,0,10,11,11,11,11,11,11,12,0,0,0,0,0,0,0,0,
0,0,0,0,0,0,0,0,0,10,11,11,11,11,11,11,12,0,0,0,0,0,0,0,0,
0,0,0,0,0,0,0,0,0,14,15,15,15,15,15,15,16,0,0,0,0,0,0,0,0,
0,0,0,0,0,0,0,0,0,0,0,2,3,3,4,0,0,0,0,0,0,0,0,0,0,
0,0,0,0,0,0,0,0,0,0,0,2,3,3,4,0,0,0,0,0,0,0,0,0,0,
0,0,0,0,0,0,0,0,0,0,0,2,3,3,4,0,0,0,0,0,0,0,0,0,0,
0,0,0,0,0,0,0,0,0,0,0,2,3,3,4,0,0,0,0,0,0,0,0,0,0,
0,0,0,0,0,0,0,0,0,0,0,2,3,3,4,0,0,0,0,0,0,0,0,0,0,
0,0,0,0,0,0,0,0,0,0,0,2,3,3,4,0,0,0,0,0,0,0,0,0,0
</data>
 </layer>
 <layer id="11" name="Tile Layer 2" width="25" height="25" offsetx="20" offsety="0">
  <data encoding="csv">
0,0,0,0,0,0,0,0,0,0,0,0,0,0,0,0,0,0,0,0,0,0,0,0,0,
0,0,0,0,0,0,0,0,0,0,0,0,0,0,0,0,0,0,0,0,0,0,0,0,0,
0,0,0,0,0,0,0,0,0,0,0,0,0,0,0,0,0,0,0,0,0,0,0,0,0,
0,0,0,0,0,0,0,0,0,0,0,0,0,0,0,0,0,0,0,0,0,0,0,0,0,
0,0,0,0,0,0,0,0,0,0,0,0,0,0,0,0,0,0,0,0,0,0,0,0,0,
0,0,0,0,0,0,0,0,0,0,0,0,0,0,0,0,0,0,0,0,0,0,0,0,0,
0,0,0,0,0,0,0,0,0,0,0,0,0,0,0,0,0,0,0,0,0,0,0,0,0,
0,0,0,0,0,0,0,0,0,0,0,0,0,0,0,0,0,0,0,0,0,0,0,0,0,
0,0,0,0,0,0,0,0,0,0,0,0,0,0,0,0,0,0,0,0,0,0,0,0,0,
0,0,0,0,0,0,0,0,0,0,0,30,31,32,0,0,0,0,0,0,0,0,0,0,0,
0,0,0,0,0,0,0,0,0,0,0,34,35,36,0,0,0,0,0,0,0,0,0,0,0,
0,0,0,0,0,0,0,0,0,0,0,38,39,40,0,0,0,0,0,0,0,0,0,0,0,
0,0,0,0,0,0,0,0,0,0,0,0,0,0,0,0,0,0,0,0,0,0,0,0,0,
0,0,0,0,0,0,0,0,0,0,0,0,0,0,0,0,0,0,0,0,0,0,0,0,0,
0,0,0,0,0,0,0,0,0,0,0,0,0,0,0,0,0,0,0,0,0,0,0,0,0,
0,0,0,0,0,0,0,0,0,0,0,0,0,0,0,0,0,0,0,0,0,0,0,0,0,
0,0,0,0,0,0,0,0,0,0,0,0,0,0,0,0,0,0,0,0,0,0,0,0,0,
0,0,0,0,0,0,0,0,0,0,0,0,0,0,0,0,0,0,0,0,0,0,0,0,0,
0,0,0,0,0,0,0,0,0,0,0,0,0,0,0,0,0,0,0,0,0,0,0,0,0,
0,0,0,0,0,0,0,0,0,0,0,0,0,0,0,0,0,0,0,0,0,0,0,0,0,
0,0,0,0,0,0,0,0,0,0,0,0,0,0,0,0,0,0,0,0,0,0,0,0,0,
0,0,0,0,0,0,0,0,0,0,0,0,0,0,0,0,0,0,0,0,0,0,0,0,0,
0,0,0,0,0,0,0,0,0,0,0,0,0,0,0,0,0,0,0,0,0,0,0,0,0,
0,0,0,0,0,0,0,0,0,0,0,0,0,0,0,0,0,0,0,0,0,0,0,0,0,
0,0,0,0,0,0,0,0,0,0,0,0,0,0,0,0,0,0,0,0,0,0,0,0,0
</data>
 </layer>
 <imagelayer id="6" name="background" offsetx="190" offsety="0">
  <image source="../../../../assets/sprites/tilesets/bg_darkcastle_front.png" width="660" height="480"/>
 </imagelayer>
 <imagelayer id="17" name="background2" offsetx="190" offsety="0">
  <image source="../../../../assets/sprites/tilesets/bg_darkcastle_front_prophecy_dim.png" width="660" height="480"/>
 </imagelayer>
 <objectgroup id="12" name="objects">
  <object id="49" gid="41" x="308" y="244" width="27" height="36"/>
  <object id="52" gid="41" x="420" y="244" width="27" height="36"/>
  <object id="53" gid="41" x="593" y="244" width="27" height="36"/>
  <object id="54" gid="41" x="705" y="244" width="27" height="36"/>
  <object id="55" gid="41" x="705" y="78" width="27" height="36"/>
  <object id="56" gid="41" x="308" y="78" width="27" height="36"/>
 </objectgroup>
 <objectgroup id="20" name="objects2">
  <object id="73" gid="47" x="593" y="244" width="27" height="36"/>
  <object id="74" gid="47" x="705" y="244" width="27" height="36"/>
  <object id="75" gid="47" x="420" y="244" width="27" height="36"/>
  <object id="76" gid="47" x="308" y="244" width="27" height="36"/>
  <object id="77" gid="47" x="308" y="78" width="27" height="36"/>
  <object id="78" gid="47" x="705" y="78" width="27" height="36"/>
 </objectgroup>
 <objectgroup id="16" name="tint"/>
 <objectgroup id="7" name="collision" tintcolor="#0000ff">
  <object id="7" x="200" y="280" width="640" height="40"/>
  <object id="8" x="840" y="320" width="40" height="320"/>
  <object id="9" x="680" y="640" width="160" height="40"/>
  <object id="10" x="680" y="640" width="40" height="120"/>
  <object id="11" x="600" y="760" width="120" height="40"/>
  <object id="12" x="600" y="800" width="40" height="200"/>
  <object id="13" x="440" y="800" height="200"/>
  <object id="20" x="400" y="760" width="40" height="240"/>
  <object id="21" x="360" y="760" width="80" height="40"/>
  <object id="22" x="320" y="640" width="40" height="120"/>
  <object id="23" x="200" y="640" width="120" height="40"/>
  <object id="24" x="160" y="320" width="40" height="320"/>
  <object id="25" x="440" y="1000" width="160" height="40"/>
 </objectgroup>
 <objectgroup id="2" name="markers" tintcolor="#ff00ff">
  <object id="1" name="spawn" x="520" y="960">
   <point/>
  </object>
 </objectgroup>
</map>
